wp-content/themes/slurve/assets/images/helix.svg

<svg viewBox="0 0 118 20"><g fill="#888"><path d="m12.9034526 10.6531736c0 3.5628925-2.8818058 6.4512396-6.43681347 6.4512396-3.55492522 0-6.43673095-2.8883471-6.43673095-6.4512396 0-3.56289261 2.88180573-6.45123972 6.43673095-6.45123972 3.55500767 0 6.43681347 2.88834711 6.43681347 6.45123972z"/><path d="m54.5102938 14.117843-5.9875723 3.4646281-5.9875724-3.4646281v-6.92933887l5.9875724-3.4646281 5.9875723 3.4646281z"/><path d="m20.0526941 4.65219835 3.4568805 6.00099175 3.4569629 6.0009917h-6.9138434-6.9138435l3.456963-6.0009917z"/><path d="m33.46527 17.5825124-6.9138434-6.9293388 6.9138434-6.92933889 6.9138435 6.92933889z"/><path d="m72.9354867 19.8926198v-8.6026446h-11.1335598v8.6026446h-2.2297959v-19.5509917h2.2297959v8.82570248h11.1335598v-8.82570248h2.2291362v19.5509917zm21.2412946.0000248h2.1456044v-19.55099171h-2.1456044zm8.5166727-18.35431402c0 .86545454-.612759 1.50793388-1.420948 1.50793388-.808188 0-1.4215244-.64247934-1.4215244-1.50793388 0-.86661157.6133364-1.50909091 1.4215244-1.50909091.808189 0 1.420948.64247934 1.420948 1.50909091zm-2.494055 18.35423142h2.145604v-14.7186777h-2.145604zm15.011793-14.71865291h2.396365l-4.904545 7.15024791 5.267121 7.5684298h-2.536464l-4.179888-6.0050413-4.319905 6.0050413h-2.452273l5.350653-7.5684298-4.988077-7.15024791h2.50818l3.901422 5.58570251zm-35.1856617 8.21323971c.072812.7533884.2562851 1.423471.5495946 2.0108264.2929798.5879339.6685843 1.0838843 1.1268959 1.487686.4578169.4042148 1.0022991.7119008 1.5706122.9225619.5676534.2115703 1.1946778.3167769 1.8177442.3167769.9893529 0 1.899297-.1832231 2.6049057-.5508264.7053613-.3670248 1.3511866-.8538843 1.9378057-1.4599174l1.3193571 1.1846281c-.7145968.8083471-1.5301244 1.4556198-2.446253 1.9419008-.9164584.4865289-2.1150943.7299174-3.4708986.7299174-.9712118 0-1.9186751-.1790909-2.7797205-.5371075-.8616227-.3579338-1.6440014-.8628925-2.285209-1.5152066-.6414549-.6513223-1.1499846-1.4365289-1.5251768-2.3550413-.3758518-.9181818-.5636128-1.9283471-.5636128-3.0300826 0-1.0283471.1693724-1.9971075.5084472-2.90619838.3388274-.90909091.8109099-1.69842976 1.4155877-2.36909091.6047603-.67008265 1.3548148-1.19809918 2.188731-1.5838843.8335863-.38570248 1.7766792-.57834711 2.7662795-.57834711 1.0444361 0 2.0102879.19760331 2.8348036.59206612.8245982.39512396 1.5518938.93256198 2.1202069 1.61165289.5676534.67942149.998341 1.47834711 1.2916506 2.39652893.2930622.91851236.4396757 1.90066116.4396757 2.94743806v.3167768c0 .1195041-.0093179.2615703-.0273766.4269422zm9.2778015-1.7355372c-.0550832-.6385124-.1924612-1.2460331-.4122991-1.82090912-.2198379-.57504132-.5178477-1.08206612-.8933697-1.52041322-.3758518-.43801653-.8652508-.78495868-1.4055276-1.04066116-.5406065-.25570248-1.1903074-.38338843-1.8865982-.38338843-.6047603 0-1.2040782.11867769-1.7352844.35595041-.5318658.23760331-1.0302529.5707438-1.4332341.99975207-.4032285.4292562-.7376855.93570248-1.0030412 1.52016529-.2659329.58471076-.4356352 1.21413226-.5084472 1.88950416z"/></g></svg>

<svg viewBox="0 0 118 20" className="logo-helix">
          <g stroke="none" strokeWidth="1" fill="none" fillRule="evenodd">
            <path
      d="M12.9034526,10.6531736 C12.9034526,14.2160661 10.0216468,17.1044132 6.46663913,17.1044132 C2.91171391,17.1044132 0.0299081761,14.2160661 0.0299081761,10.6531736 C0.0299081761,7.09028099 2.91171391,4.20193388 6.46663913,4.20193388 C10.0216468,4.20193388 12.9034526,7.09028099 12.9034526,10.6531736 L12.9034526,10.6531736 Z"
      fill="#888"
    />
            <polygon
      fill="#888"
      points="54.5102938 14.117843 48.5227215 17.5824711 42.5351491 14.117843 42.5351491 7.18850413 48.5227215 3.72387603 54.5102938 7.18850413"
    />
            <polygon
      fill="#888"
      points="20.0526941 4.65219835 23.5095746 10.6531901 26.9665375 16.6541818 20.0526941 16.6541818 13.1388506 16.6541818 16.5958136 10.6531901"
    />
            <polygon
      fill="#888"
      points="33.46527 17.5825124 26.5514266 10.6531736 33.46527 3.72383471 40.3791135 10.6531736"
    />
            <path
      d="M72.9354867,19.8926198 L72.9354867,11.2899752 L61.8019269,11.2899752 L61.8019269,19.8926198 L59.572131,19.8926198 L59.572131,0.341628099 L61.8019269,0.341628099 L61.8019269,9.16733058 L72.9354867,9.16733058 L72.9354867,0.341628099 L75.1646229,0.341628099 L75.1646229,19.8926198 L72.9354867,19.8926198 Z M94.1767813,19.8926446 L96.3223857,19.8926446 L96.3223857,0.341652893 L94.1767813,0.341652893 L94.1767813,19.8926446 Z M102.693454,1.53833058 C102.693454,2.40378512 102.080695,3.04626446 101.272506,3.04626446 C100.464318,3.04626446 99.8509816,2.40378512 99.8509816,1.53833058 C99.8509816,0.671719008 100.464318,0.0292396694 101.272506,0.0292396694 C102.080695,0.0292396694 102.693454,0.671719008 102.693454,1.53833058 Z M100.199399,19.892562 L102.345003,19.892562 L102.345003,5.1738843 L100.199399,5.1738843 L100.199399,19.892562 Z M115.211192,5.17390909 L117.607557,5.17390909 L112.703012,12.324157 L117.970133,19.8925868 L115.433669,19.8925868 L111.253781,13.8875455 L106.933876,19.8925868 L104.481603,19.8925868 L109.832256,12.324157 L104.844179,5.17390909 L107.352359,5.17390909 L111.253781,10.7596116 L115.211192,5.17390909 Z M80.0255303,13.3871488 C80.0983423,14.1405372 80.2818154,14.8106198 80.5751249,15.3979752 C80.8681047,15.9859091 81.2437092,16.4818595 81.7020208,16.8856612 C82.1598377,17.289876 82.7043199,17.597562 83.272633,17.8082231 C83.8402864,18.0197934 84.4673108,18.125 85.0903772,18.125 C86.0797301,18.125 86.9896742,17.9417769 87.6952829,17.5741736 C88.4006442,17.2071488 89.0464695,16.7202893 89.6330886,16.1142562 L90.9524457,17.2988843 C90.2378489,18.1072314 89.4223213,18.7545041 88.5061927,19.2407851 C87.5897343,19.727314 86.3910984,19.9707025 85.0352941,19.9707025 C84.0640823,19.9707025 83.116619,19.7916116 82.2555736,19.433595 C81.3939509,19.0756612 80.6115722,18.5707025 79.9703646,17.9183884 C79.3289097,17.2670661 78.82038,16.4818595 78.4451878,15.5633471 C78.069336,14.6451653 77.881575,13.635 77.881575,12.5332645 C77.881575,11.5049174 78.0509474,10.536157 78.3900222,9.62706612 C78.7288496,8.71797521 79.2009321,7.92863636 79.8056099,7.25797521 C80.4103702,6.58789256 81.1604247,6.05987603 81.9943409,5.67409091 C82.8279272,5.28838843 83.7710201,5.0957438 84.7606204,5.0957438 C85.8050565,5.0957438 86.7709083,5.29334711 87.595424,5.68780992 C88.4200222,6.08293388 89.1473178,6.6203719 89.7156309,7.29946281 C90.2832843,7.9788843 90.7139719,8.77780992 91.0072815,9.69599174 C91.3003437,10.6145041 91.4469572,11.5966529 91.4469572,12.6434298 L91.4469572,12.9602066 C91.4469572,13.0797107 91.4376393,13.2217769 91.4195806,13.3871488 L80.0255303,13.3871488 Z M89.3033318,11.6516116 C89.2482486,11.0130992 89.1108706,10.4055785 88.8910327,9.83070248 C88.6711948,9.25566116 88.373185,8.74863636 87.997663,8.31028926 C87.6218112,7.87227273 87.1324122,7.52533058 86.5921354,7.2696281 C86.0515289,7.01392562 85.401828,6.88623967 84.7055372,6.88623967 C84.1007769,6.88623967 83.501459,7.00491736 82.9702528,7.24219008 C82.438387,7.47979339 81.9399999,7.81293388 81.5370187,8.24194215 C81.1337902,8.67119835 80.7993332,9.17764463 80.5339775,9.76210744 C80.2680446,10.3468182 80.0983423,10.9762397 80.0255303,11.6516116 L89.3033318,11.6516116 Z"
      fill="#888"
    />
          </g>
        </svg>
